2021/1/cappadocia/images/facebook-icon.svg

<svg width="30" height="30" viewBox="0 0 30 30" fill="none" xmlns="http://www.w3.org/2000/svg">
<path d="M17.4183 29.8047C17.2933 29.8251 17.1679 29.8438 17.042 29.861C17.1679 29.8438 17.2933 29.8251 17.4183 29.8047Z" fill="black"/>
<path d="M17.7183 29.7534C17.6585 29.7644 17.5988 29.7745 17.5391 29.7848C17.5988 29.7745 17.6585 29.7644 17.7183 29.7534Z" fill="black"/>
<path d="M16.7077 29.9028C16.5614 29.9193 16.4142 29.934 16.2666 29.9463C16.4142 29.934 16.5614 29.9193 16.7077 29.9028Z" fill="black"/>
<path d="M16.9957 29.8677C16.9254 29.8771 16.8547 29.8858 16.7842 29.894C16.8547 29.8858 16.9254 29.8771 16.9957 29.8677Z" fill="black"/>
<path d="M18.1271 29.6724C18.0745 29.6836 18.0216 29.6948 17.9688 29.7056C18.0216 29.6948 18.0745 29.6836 18.1271 29.6724Z" fill="black"/>
<path d="M19.1404 29.4209C19.0978 29.433 19.0553 29.4445 19.0127 29.4564C19.0553 29.4445 19.0978 29.433 19.1404 29.4209Z" fill="black"/>
<path d="M18.8345 29.5044C18.7882 29.5165 18.7418 29.5289 18.6953 29.5406C18.7418 29.5289 18.7882 29.5168 18.8345 29.5044Z" fill="black"/>
<path d="M18.433 29.6045C18.384 29.6159 18.3346 29.6267 18.2852 29.6377C18.3346 29.6267 18.384 29.6159 18.433 29.6045Z" fill="black"/>
<path d="M16.2615 29.9468C16.1826 29.9534 16.1036 29.9594 16.0244 29.9646C16.1036 29.9594 16.1826 29.9534 16.2615 29.9468Z" fill="black"/>
<path d="M30 15C30 6.717 23.283 0 15 0C6.717 0 0 6.717 0 15C0 23.283 6.717 30 15 30C15.0881 30 15.1758 29.9982 15.2637 29.9966V18.3197H12.041V14.564H15.2637V11.8002C15.2637 8.59497 17.2204 6.85043 20.0796 6.85043C21.4487 6.85043 22.6257 6.95251 22.9688 6.99806V10.348H20.9972C19.4417 10.348 19.1405 11.0873 19.1405 12.1719V14.564H22.8598L22.375 18.3197H19.1405V29.4205C25.4102 27.6231 30 21.8468 30 15Z" fill="#E2AB3F"/>
<path d="M15.9906 29.9668C15.8345 29.9769 15.6777 29.9849 15.5205 29.9901C15.6777 29.9849 15.8345 29.9769 15.9906 29.9668Z" fill="black"/>
<path d="M15.5127 29.9902C15.4298 29.993 15.3468 29.995 15.2637 29.9964C15.3468 29.995 15.4298 29.993 15.5127 29.9902Z" fill="black"/>
</svg>

<svg width="30" height="30" fill="none" xmlns="http://www.w3.org/2000/svg"><path d="M17.418 29.805zM17.718 29.753l-.179.032c.06-.01.12-.02.18-.032zM16.708 29.903zM16.996 29.868zM18.127 29.672zM19.14 29.42c-.042.013-.085.024-.127.036l.127-.035zM18.834 29.504l-.139.037.14-.037zM18.433 29.605l-.148.033.148-.034zM16.262 29.947z" fill="#000"/><path d="M30 15c0-8.283-6.717-15-15-15C6.717 0 0 6.717 0 15c0 8.283 6.717 15 15 15l.264-.003V18.32H12.04v-3.756h3.223V11.8c0-3.205 1.956-4.95 4.816-4.95 1.369 0 2.546.103 2.889.148v3.35h-1.972c-1.555 0-1.857.74-1.857 1.824v2.392h3.72l-.485 3.756H19.14v11.1C25.41 27.623 30 21.848 30 15z" fill="#E2AB3F"/><path d="M15.99 29.967zM15.513 29.99z" fill="#000"/></svg>
